!!!OTL: Flying Cloud
!!!ONM: 62.
**kern
*clefG2
*k[f#]
*G:
!Referent unclear -- Conklin/Pearce 
*M4/4
*MM84
{8g
=1
2b
4a
4g
=2
8a
4.g
4e}
{4B
=3
4.d
8d
4e
4d
=4
2.g}
{8g
8a
=5
4.b
8a
4g
4b
=6
4a
4g
4e}
{4B
=7
4.d
8d
8e
4.d
=8
2.g}
{4g
=9
4.b
8b
4a
4b
=10
4.a
8g
4e}
{4B
=11
4.d
8d
4e
4d
=12
2.g}
{4d
=13
16g
16g
4.b
4a
4g
=14
8a
4.g
4G}
{4A
=15
4B
(8d
8B)
8A
[8A
4A]
=16
2.A
8r}
==
*-
!!!CNT: Folksongs of Maritime Canada
!!!MRD: 1928///-1932///
!!!OCL: Helen Creighton
!!!YOR: Songs and Ballads from Nova Scotia
!!!PPR: J.M. Dent & Sons, Limited
!!!PPP: Toronto, Canada
!!!PDT: 1932///
!!!reprint: Dover Publications, 1992: ISBN 0-486-21703-5
!!!ENC1: Craig Stuart Sapp (music and bibliographic data)                       
!!!ENC2: Marcus Pearce (phrase markings and key designations)                   
!!!ENC3: Darrell Conklin (phrase markings and key designations)   
!!!END: 2002/04/10/
!!!EEV: 2004/06/05
!!!MPN: Mr. Richard Hartlan
!!!PPG: 126
!!!EFL: 63/152
!!!ARE: Canada; Nova Scotia
!!!verses: 17
!!!VTS: 1240838578
